material/.icons/material/valve.svg

<?xml version="1.0" encoding="UTF-8"?><!DOCTYPE svg PUBLIC "-//W3C//DTD SVG 1.1//EN" "http://www.w3.org/Graphics/SVG/1.1/DTD/svg11.dtd"><svg xmlns="http://www.w3.org/2000/svg" xmlns:xlink="http://www.w3.org/1999/xlink" version="1.1" id="mdi-valve" width="24" height="24" viewBox="0 0 24 24"><path d="M4 22H2V2H4M22 2H20V22H22M17.24 5.34L13.24 9.34A3 3 0 0 0 9.24 13.34L5.24 17.34L6.66 18.76L10.66 14.76A3 3 0 0 0 14.66 10.76L18.66 6.76Z" /></svg>

<svg xmlns="http://www.w3.org/2000/svg" viewBox="0 0 24 24"><path d="M4 22H2V2h2m18 0h-2v20h2M17.24 5.34l-4 4a3 3 0 00-4 4l-4 4 1.42 1.42 4-4a3 3 0 004-4l4-4z"/></svg>
